!!!OTL: Dainty Davie 
!!!id: HA032
**kern
*clefF4
*k[f#c#]
*D:
*M2/2
{4dd
=1
4.a
8f#
8g
8f#
8e
8f#
=2
4d
4B
4.d}
{8d
=3
4d
4a
8f#
8g
8a
8f#}
=4yy
{4d
4a
4f#
4dd
=5
4.a
8g
4f#
8e
8f#
=6
4d
4B
4.d}
{8d
=7
4d
4dd
8ee
8dd
8cc#
8dd
=8
2b
4dd}
{4a
=9
4dd
4ff#
8dd
8ee
4ff#
=10
8dd
8ee
8ff#
8gg
4ff#}
{8ee
8dd
=11
4cc#
4ee
4a
4ee
=12
8cc#
8dd
8ee
8ff#
4ee}
{8dd
8cc#
=13
4.dd
8ee
4ff#
8ee
8ff#
=14
8gg
8ff#
8ee
8dd
4cc#}
{8b
8a
=15
8b
8cc#
8dd
8ee
8ff#
8ee
8dd
8cc#
=16
2b
4dd}
==
*-
!!!minrhy: 8
!!!meter: 2/2 
!!!cut: Dainty Davie 
!!!key: HA032  08  D 2/2 
!!!bem: Vorschlge
!!!fog: a--b--aw-c--d--e--f--g--
!! Haydn: Volksliedbearbeitungen, Bd1
